!!!OTL: 1432. Die Kraehwinkler Landwehr.
!!!ARE: Europa, Mitteleuropa, Deutschland, Thueringen, Erfurt
!!!SCT: E1432
!!!TXL: @@DE
!!!YEM: Copyright 1995, estate of Helmut Schaffrath.
**kern	**text
*ICvox	*
*M4/4	*
*met(c)	*
*k[f#c#]	*
*D:	*
!LO:TX:a:t=Alle.	!
!LO:TX:a:t=Schrittmäßig.	!
!LO:TX:a:t=Mündlich aus Thüringen (Erfurt) um 1840. Volksmelodie ſeit 1813.	!
{8a	Nur
8a	im-
8g	-mer
=1	=1
4f#	lang-
8.d	-ſam
16d	vor-
8d	-an,
8dd	nur
8dd	im-
8cc#	-mer
=2	=2
4b/	lang-
8.g	-ſam
16g	vor-
4g}	-an,
{8.g	daß
16f#	die
=3	=3
4e	Kräh-
8.e	-wink-
16e	-ler
4a	Landwehr
4a	.
=4	=4
4f#	nach-
8.e	-kom-
16e	-men
4d;}	kann!
=||	=||
!LO:TX:a:t=Einzelne.	!
{4a	1._Hätt'_der
=5	=5
4f#	Feind
4a	unſre
4f#	Stär-
4a	-ke_ſchon
=6	=6
8bL	frü-
8aJ	.
8g	-her
8f#	ge-
4g}	-kannt,
{4g	wär'_er
=7	=7
4e	ſi-
4g	-cher_ſchon
4e	frü-
8g	-her
8g	ʒum
=8	=8
8aL	Kuk-
8gJ	.
8f#	-kuk
8e	ge-
8f#}	-rannt.
!LO:TX:a:t=Alle.	!
{8a	Nur
8a	im-
8g	-mer
=9	=9
4f#	lang-
8.d	-ſam
16d	vor-
8d	-an,
8dd	nur
8dd	im-
8cc#	-mer
=10	=10
4b/	lang-
8.g	-ſam
16g	vor-
4g}	-an,
{8.g	daß
16f#	die
=11	=11
4e	Kräh-
8.e	-wink-
16e	-ler
4a	Landwehr
4a	.
=12	=12
4f#	nach-
8.e	-kom-
16e	-men
8d;}	kann!
==	==
!!!AGN: Staende -, Soldaten - Lied, Spott
!!!ONB: ESAC (Essen Associative Code) Database: ERK3
!!!AMT: simple quadruple
!!!AIN: vox
!!!EED: Helmut Schaffrath
!!!EEV: 1.0
!!!GTL: Staendelieder (Berufslieder). 1. Soldaten- und Kriegslieder. Soldatenlieder seit dem 30jaehr. Kriege.
!!!URL-scan: https://rosdok.uni-rostock.de/mcrviewer/recordIdentifier/rosdok_ppn745177999/iview2/phys_0295.iview2?x=-128.77276441889308&y=140.17879385477863&scale=0.5870222003877485&rotation=0&layout=singlePageLayout
!!!ENC: Anna Maria Matuszewska
!!!EEV: 2024/12/31
*-	*-
